X: 1
T:Fulton Eyes
M:C|
L:1/8
Q:80
C:Bruce Gandy
S:Hornpipe
K:HP
|: {g}A3/4B/4|
{Gdc}d{g}A3/4d/4{g}B/4{d}A3/4{g}d3/4B/4|
{g}A3/4d/4{G}d3/4A/4{g}d3/4e/4{g}f3/4d/4|  !
{gef}e{g}c/4e3/4{gAGAG}A{g}A3/4B/4|
{gcecG}c{g}c3/4d/4{g}e3/4f/4g3/4e/4{Gdc}d{g}A3/4d/4{g}B/4{d}A3/4{g}d3/4B
/4|
{g}A3/4d/4{G}d3/4A/4{g}d3/4e/4{g}f3/4d/4|  !
{ag}af3/4d/4{g}e3/4A/4{gAGAG}A|
{gef}e3/4c/4g3/4e/4{Gdc}d:| |:
{g}f3/4g/4|  !
a{GdG}a3/4g/4{a}f3/4g/4a3/4f/4|
{a}g3/4e/4{A}e3/4d/4{g}c/4e3/4{A}e3/4f/4|
{a}g3/4e/4{g}c/4e3/4{gAGAG}A{g}A3/4B/4|  !
{gcecG}c{g}c3/4d/4{g}e3/4f/4g3/4e/4|1 a{GdG}a3/4g/4{a}f3/4g/4a3/4f/4|
{a}g3/4e/4{A}e3/4d/4{g}c/4e3/4{A}e3/4f/4|
{ag}af3/4d/4{g}e3/4A/4{gAGAG}A|  !
{gef}e3/4c/4g3/4e/4{Gdc}d:| |:
{g}f3/4e/4|
{g}d{GBG}A3/4d/4{gfg}f{g}d3/4e/4|  !
{g}f3/4d/4{G}d3/4f/4{gef}e3/4d/4{g}c/4{g}A3/4|
{eAfA}e{g}e3/4f/4{a}g3/4e/4{A}e3/4d/4|
{gcecG}c{g}c3/4d/4{g}e3/4A/4{g}f3/4e/4{g}d{GBG}A3/4d/4{gfg}f{g}d3/4e/4|
 !
{g}f3/4d/4{G}d3/4f/4{gef}e3/4d/4{g}c/4{g}A3/4|
{ag}af3/4d/4{g}e3/4A/4{gAGAG}A|
{gef}e3/4c/4g3/4e/4{Gdc}d:| |:  !
{g}f3/4g/4|
a3/4d/4{gdedG}da3/4f/4{g}d3/4f/4|
{a}g3/4B/4{gBeBG}B{g}e3/4f/4g3/4f/4|  !
{g}e3/4A/4{gAGAG}A{g}c3/4{d}A/4{e}A3/4B/4|
{gcecG}c{g}c3/4d/4{g}e3/4f/4g3/4e/4|1 a3/4d/4{gdedG}da3/4f/4{g}d3/4f/4|
{a}g3/4B/4{gBeBG}B{g}e3/4f/4g3/4f/4|  !
{ag}af3/4d/4{g}e3/4A/4{gAGAG}A|
{gef}e3/4c/4g3/4e/4{Gdc}d:|
